X:1
T: Jump At The Sun
C: John Kirkpatrick
Z: NfldWhistler
S: https://thesession.org/tunes/736#setting47561
R: jig
M: 6/8
L: 1/8
K: Emin
|:EGB ^A2B|EGB ^A2B|e2B e2B|cBA GAF|
EGB ^A2B|EGB ^A2B|e2B cBA|1 GAF E2F:|2 GAF E2d||
|:eBB gfe|fBB agf|gfe gfe|fBB c2B|
eBB gfe|fBB agf|e2B cBA|GAF E2d:|
|:eBB fBB|gBB fBB|eBB GBB|cdc B2d|
eBB fBB|gBB fBB|e2B cBA|1 GAF E2d:|2 GAF E2F||

